Production/EA4S_WordDrawings/SVG/singles_SVG/rain.svg

<?xml version="1.0" encoding="UTF-8" standalone="no"?><!DOCTYPE svg PUBLIC "-//W3C//DTD SVG 1.1//EN" "http://www.w3.org/Graphics/SVG/1.1/DTD/svg11.dtd"><svg width="100%" height="100%" viewBox="0 0 462 423" version="1.1" xmlns="http://www.w3.org/2000/svg" xmlns:xlink="http://www.w3.org/1999/xlink" xml:space="preserve" style="fill-rule:evenodd;clip-rule:evenodd;stroke-linejoin:round;stroke-miterlimit:1.41421;"><g id="rain"><path d="M95.982,69.001c0.266,-12.924 1.97,-26.253 9.956,-36.818c7.269,-9.616 18.547,-15.251 30.029,-18.071c11.653,-2.862 24.581,-2.069 35.795,2.165c5.956,2.249 11.599,5.463 16.359,9.704c2.416,2.153 4.617,4.591 6.667,7.091c2.609,3.182 5.227,4.864 8.638,7.021c2.902,1.835 6.61,-1.978 6.604,-4.749c-0.009,-4.485 -0.51,-7.262 -2.803,-11.153c-2.08,-3.53 -5.019,-6.465 -8.097,-9.134c-6.042,-5.241 -13.018,-9.16 -20.618,-11.634c-14.537,-4.733 -30.368,-4.276 -44.956,-0.004c-27,7.907 -56.247,37.475 -41.333,67.245c1.019,2.028 3.725,-0.009 3.759,-1.663Z" style="fill-rule:nonzero;"/><path d="M95.603,72.492c1.997,-9.519 -9.527,-13.735 -16.883,-13.502c-9.856,0.312 -19.053,6.332 -26.143,12.715c-6.97,6.276 -13.098,14.334 -15.491,23.521c-2.051,7.871 1.788,18.229 10.955,19.201c5.946,0.63 15.916,-9.131 8.184,-13.448c-1.763,-0.984 -1.946,-0.675 -3.601,-1.564c0.14,0.076 -1.637,-1.697 -1.257,-1.029c-0.709,-1.247 -0.67,-1.771 -0.689,-1.92c-0.241,-1.953 -0.212,-0.934 0.197,-2.957c0.979,-4.837 5.13,-10.498 9.243,-14.494c4.64,-4.509 9.955,-8.029 16.336,-9.633c6.722,-1.689 10.887,3.687 16.9,4.732c0.992,0.173 2.048,-0.665 2.249,-1.622Z" style="fill-rule:nonzero;"/><path d="M211.555,39.896c3.198,-5.929 5.911,-10.229 12.998,-11.462c7.204,-1.252 14.847,0.792 21.312,3.913c14.043,6.779 24.171,22.539 14.89,37.403c4.125,0.2 8.249,0.4 12.374,0.601c0.16,-1.083 0.123,-2.157 -0.111,-3.223c-1.128,-8.315 -12.987,-3.463 -13.774,2.783c-0.213,1.696 -0.339,3.263 -0.253,4.974c0.419,8.367 11.153,3.29 13.4,-1.086c5.221,-10.171 6.732,-21.96 1.086,-32.288c-4.904,-8.969 -13.649,-15.539 -23.043,-19.234c-8.831,-3.474 -19.457,-4.991 -28.53,-1.482c-7.491,2.896 -15.749,10.869 -13.438,19.732c0.431,1.655 2.658,0.168 3.089,-0.631Z" style="fill-rule:nonzero;"/><path d="M280.066,79.455c3.333,-15.677 9.396,-30.406 25.25,-36.583c16.327,-6.362 36.726,-4.448 52.51,2.529c8.854,3.914 16.175,10.077 21.591,18.081c1.564,2.313 0.006,-0.373 1.101,1.978c0.454,0.975 0.819,1.992 1.183,3.003c0.95,2.646 1.672,5.375 2.341,8.103c1.484,6.046 2.353,12.31 2.488,18.535c0.058,2.679 -0.028,4.105 -0.743,6.716c0.242,-0.886 -0.111,-0.428 1.096,-1.549c1.51,-1.402 4.963,-2.092 0.608,-0.968c-4.061,1.048 -11.278,10.647 -4.519,13.142c8.699,3.211 15.835,-4.659 17.764,-12.461c1.82,-7.362 0.351,-15.728 -1.129,-23.008c-1.371,-6.748 -2.93,-13.935 -6.213,-20.057c-5.216,-9.723 -14.604,-16.987 -24.41,-21.637c-19.893,-9.432 -46.515,-10.324 -66.681,-1.264c-8.812,3.958 -16.51,10.229 -21.597,18.496c-5.438,8.838 -6.733,18.213 -4.601,28.221c0.472,2.212 3.688,0.007 3.961,-1.277Z" style="fill-rule:nonzero;"/><path d="M403.143,106.166c16.153,-6.634 58.13,8.223 42.682,30.623c2.786,-1.266 5.572,-2.531 8.357,-3.797c-2.793,-0.42 -4.543,-0.711 -7.381,-0.134c-2.547,0.519 -5.287,3.771 -4.975,6.438c0.462,3.934 1.951,6.37 6.109,6.948c4.053,0.563 7.506,-2.063 9.369,-5.461c8.063,-14.702 3.401,-30.137 -11.207,-38.166c-13.336,-7.331 -30.609,-7.629 -43.558,0.644c-1.355,0.867 -1.562,3.794 0.604,2.905Z" style="fill-rule:nonzero;"/><path d="M39.442,117.683c-13.957,-3.249 -30.029,4.868 -37.18,16.861c-4.02,6.741 -2.165,14.665 1.704,20.917c3.978,6.428 13.245,9.049 18.902,3.06c2.053,-2.173 4.084,-5.083 2.873,-8.243c-1.381,-3.603 -6.087,-3.525 -8.889,-1.788c-1.125,0.599 -0.838,0.62 0.861,0.061c0.536,-0.091 -1.787,-1.214 -0.921,-0.716c-1.418,-0.815 -2.468,-2.372 -3.397,-3.672c-2.469,-3.45 -2.007,-7.111 0.395,-10.314c4.969,-6.627 15.779,-9.633 23.633,-10.264c2.616,-0.209 5.794,-5.023 2.019,-5.902Z" style="fill-rule:nonzero;"/><path d="M21.254,163.373c14.852,-2.052 29.607,-4.365 44.565,-5.575c15.327,-1.24 30.729,-1.66 46.099,-1.928c30.936,-0.539 61.877,-0.548 92.814,-1.09c64.68,-1.133 129.195,-4.207 193.805,-7.164c13.754,-0.629 27.48,-1.197 41.21,0.026c1.611,-4.71 3.224,-9.421 4.835,-14.132c-1.755,0.144 -3.428,0.438 -5.16,0.746c-3.146,0.559 -5.889,2.274 -7.291,5.256c-1.386,2.945 -0.6,6.682 2.964,7.393c1.57,0.313 3.056,0.601 4.652,0.737c4.177,0.357 8.132,-1.957 9.935,-5.79c2.008,-4.269 -0.274,-8.468 -5.1,-8.343c-64.064,1.659 -128.021,6.073 -192.054,8.699c-31.936,1.31 -63.92,2.329 -95.88,2.763c-30.837,0.419 -61.67,0.227 -92.387,3.386c-14.25,1.466 -28.672,3.493 -42.396,7.704c-3.314,1.018 -5.709,8.017 -0.611,7.312Z" style="fill-rule:nonzero;"/><path d="M53.23,178.628c-8.7,10.814 -20.836,18.479 -29.737,29.161c-5.343,6.413 -15.018,26.821 -2.233,31.27c12.934,4.5 24.25,-12.944 28.613,-22.619c2.866,-6.355 4.853,-13.102 7.126,-19.681c1.775,-5.135 6.121,-11.95 5.348,-17.516c-0.405,-2.914 -3.345,-3.272 -5.593,-2.042c-8.722,4.775 -10.97,18.382 -13.813,27.013c-1.68,5.1 -3.537,10.146 -5.959,14.945c-1.586,3.142 -5.266,8.943 -9.056,9.546c-2.936,0.466 -1.09,-8.821 -0.834,-9.743c1.456,-5.246 5.248,-9.857 8.791,-13.831c3.927,-4.404 8.337,-8.364 12.455,-12.585c3.856,-3.954 6.505,-7.646 8.906,-12.522c1.467,-2.982 -2.526,-3.245 -4.014,-1.396Z" style="fill-rule:nonzero;"/><path d="M209.755,190.913c-5.24,7.412 -13.141,13.599 -19.624,19.956c-7.265,7.123 -14.553,14.247 -20.954,22.175c-5.51,6.824 -10.399,14.953 -11.521,23.796c-0.848,6.685 -0.429,16.877 6.144,20.733c5.961,3.498 13.572,-1.675 18.052,-5.285c5.895,-4.753 10.838,-11.055 15.005,-17.334c6.296,-9.487 10.729,-20.334 15.971,-30.425c6.434,-12.384 15.16,-25.184 16.772,-39.198c0.498,-4.333 -4.277,-3.388 -6.253,-1.179c-8.249,9.22 -13.009,20.413 -18.61,31.38c-5.349,10.475 -10.267,21.158 -15.536,31.668c-2.575,5.136 -6.289,9.814 -10.075,14.099c-1.499,1.695 -3.341,3.504 -5.148,4.761c-1.916,1.332 -2.369,1.459 -3.013,1.102c-1.502,-0.837 -1.858,-4.841 -2.059,-6.464c-0.479,-3.882 -0.073,-7.442 1.023,-11.176c2.177,-7.411 7.665,-14.06 12.511,-19.878c10.475,-12.576 22.44,-23.165 30.173,-37.735c1.083,-2.039 -1.846,-2.427 -2.858,-0.996Z" style="fill-rule:nonzero;"/><path d="M53.741,342.115c-2.375,2.332 -5.345,3.872 -7.923,5.955c-3.313,2.678 -6.646,5.317 -9.902,8.064c-6.177,5.209 -12.221,10.737 -17.103,17.207c-5.582,7.397 -14.551,30.363 -0.038,33.996c12.89,3.227 24.043,-11.146 29.074,-20.847c4.736,-9.133 8.646,-18.678 12.897,-28.039c2.243,-4.94 4.591,-9.832 7.125,-14.63c2.304,-4.363 5.415,-8.753 5.342,-13.857c-0.052,-3.65 -4.333,-3.763 -6.726,-2.455c-7.369,4.027 -11.11,13.187 -14.649,20.39c-3.709,7.55 -6.848,15.376 -10.179,23.097c-2.742,6.354 -5.239,13.556 -9.455,19.091c-1.834,2.408 -5.059,4.713 -6.608,4.935c-0.428,0.061 -0.6,0.35 -0.959,-0.267c-1.045,-1.794 -0.92,-4.2 -0.723,-6.178c0.579,-5.815 3.174,-10.314 6.634,-14.916c4.021,-5.347 8.888,-10.024 13.668,-14.679c4.676,-4.553 8.442,-9.468 12.65,-14.388c1.98,-2.313 -1.151,-4.418 -3.125,-2.479Z" style="fill-rule:nonzero;"/><path d="M398.589,193.39c-16.321,9.689 -31.491,21.288 -45.552,34.059c-13.142,11.936 -29.401,28.032 -29.245,47.178c0.067,8.151 3.253,16.407 12.528,16.211c7.966,-0.169 15.648,-7.039 21.104,-12.132c17.656,-16.486 28.662,-39.006 40.45,-59.729c2.413,-4.241 4.86,-8.466 7.404,-12.63c2.705,-4.428 5.928,-8.986 6.968,-14.149c1.113,-5.526 -5.082,-5.081 -8.084,-2.881c-5.467,4.004 -8.922,10.473 -12.355,16.169c-3.811,6.318 -7.511,12.706 -11.098,19.154c-6.539,11.755 -12.834,23.958 -20.811,34.826c-4.289,5.844 -9.32,11.21 -14.959,15.767c-1.987,1.605 -4.564,3.14 -5.983,3.305c0.077,-0.009 -0.248,0.147 -0.833,-0.461c-0.895,-0.929 -1.227,-2.514 -1.445,-3.734c-2.936,-16.364 13.672,-31.754 24.172,-41.947c12.87,-12.493 28.318,-22.923 39.365,-37.152c0.989,-1.275 -0.23,-2.682 -1.626,-1.854Z" style="fill-rule:nonzero;"/><path d="M263.94,338.342c-12.94,12.328 -28.199,22.058 -41.022,34.551c-6.518,6.35 -12.287,13.596 -15.851,22.027c-3.072,7.269 -4.83,17.496 0.814,24.021c4.514,5.218 12.643,4.555 18.462,2.438c8.654,-3.148 15.033,-9.767 19.643,-17.518c6.126,-10.302 8.162,-22.659 13.231,-33.48c4.974,-10.617 14.246,-21.806 12.071,-34.119c-0.691,-3.919 -5.607,-3.074 -7.405,-0.359c-11.168,16.869 -19.526,35.591 -25.688,54.839c-2.229,6.963 -5.06,14.152 -11.609,18.006c-2.751,1.618 -7.053,2.688 -8.816,-0.685c-3.055,-5.843 0.807,-13.772 3.677,-18.884c3.691,-6.573 9.386,-12.122 14.821,-17.24c10.634,-10.014 23.796,-18.691 30.622,-31.979c1.074,-2.091 -1.597,-2.907 -2.95,-1.618Z" style="fill-rule:nonzero;"/></g></svg>

<?xml version="1.0" encoding="UTF-8"?>
<svg width="462px" height="423px" viewBox="0 0 462 423" version="1.1" xmlns="http://www.w3.org/2000/svg" xmlns:xlink="http://www.w3.org/1999/xlink">
    <!-- Generator: Sketch 41 (35326) - http://www.bohemiancoding.com/sketch -->
    <title>rain</title>
    <desc>Created with Sketch.</desc>
    <defs></defs>
    <g id="Page-1" stroke="none" stroke-width="1" fill="none" fill-rule="evenodd">
        <g id="Layer_1" transform="translate(-1143.000000, -97.000000)" fill="#000000">
            <g id="Layer_1_3_">
                <g id="rain" transform="translate(1143.000000, 97.000000)">
                    <path d="M95.982,69.001 C96.248,56.077 97.952,42.748 105.938,32.183 C113.207,22.567 124.485,16.932 135.967,14.112 C147.62,11.25 160.548,12.043 171.762,16.277 C177.718,18.526 183.361,21.74 188.121,25.981 C190.537,28.134 192.738,30.572 194.788,33.072 C197.397,36.254 200.015,37.936 203.426,40.093 C206.328,41.928 210.036,38.115 210.03,35.344 C210.021,30.859 209.52,28.082 207.227,24.191 C205.147,20.661 202.208,17.726 199.13,15.057 C193.088,9.816 186.112,5.897 178.512,3.423 C163.975,-1.31 148.144,-0.853 133.556,3.419 C106.556,11.326 77.309,40.894 92.223,70.664 C93.242,72.692 95.948,70.655 95.982,69.001 L95.982,69.001 Z" id="Shape"></path>
                    <path d="M95.603,72.492 C97.6,62.973 86.076,58.757 78.72,58.99 C68.864,59.302 59.667,65.322 52.577,71.705 C45.607,77.981 39.479,86.039 37.086,95.226 C35.035,103.097 38.874,113.455 48.041,114.427 C53.987,115.057 63.957,105.296 56.225,100.979 C54.462,99.995 54.279,100.304 52.624,99.415 C52.764,99.491 50.987,97.718 51.367,98.386 C50.658,97.139 50.697,96.615 50.678,96.466 C50.437,94.513 50.466,95.532 50.875,93.509 C51.854,88.672 56.005,83.011 60.118,79.015 C64.758,74.506 70.073,70.986 76.454,69.382 C83.176,67.693 87.341,73.069 93.354,74.114 C94.346,74.287 95.402,73.449 95.603,72.492 L95.603,72.492 Z" id="Shape"></path>
                    <path d="M211.555,39.896 C214.753,33.967 217.466,29.667 224.553,28.434 C231.757,27.182 239.4,29.226 245.865,32.347 C259.908,39.126 270.036,54.886 260.755,69.75 C264.88,69.95 269.004,70.15 273.129,70.351 C273.289,69.268 273.252,68.194 273.018,67.128 C271.89,58.813 260.031,63.665 259.244,69.911 C259.031,71.607 258.905,73.174 258.991,74.885 C259.41,83.252 270.144,78.175 272.391,73.799 C277.612,63.628 279.123,51.839 273.477,41.511 C268.573,32.542 259.828,25.972 250.434,22.277 C241.603,18.803 230.977,17.286 221.904,20.795 C214.413,23.691 206.155,31.664 208.466,40.527 C208.897,42.182 211.124,40.695 211.555,39.896 L211.555,39.896 Z" id="Shape"></path>
                    <path d="M280.066,79.455 C283.399,63.778 289.462,49.049 305.316,42.872 C321.643,36.51 342.042,38.424 357.826,45.401 C366.68,49.315 374.001,55.478 379.417,63.482 C380.981,65.795 379.423,63.109 380.518,65.46 C380.972,66.435 381.337,67.452 381.701,68.463 C382.651,71.109 383.373,73.838 384.042,76.566 C385.526,82.612 386.395,88.876 386.53,95.101 C386.588,97.78 386.502,99.206 385.787,101.817 C386.029,100.931 385.676,101.389 386.883,100.268 C388.393,98.866 391.846,98.176 387.491,99.3 C383.43,100.348 376.213,109.947 382.972,112.442 C391.671,115.653 398.807,107.783 400.736,99.981 C402.556,92.619 401.087,84.253 399.607,76.973 C398.236,70.225 396.677,63.038 393.394,56.916 C388.178,47.193 378.79,39.929 368.984,35.279 C349.091,25.847 322.469,24.955 302.303,34.015 C293.491,37.973 285.793,44.244 280.706,52.511 C275.268,61.349 273.973,70.724 276.105,80.732 C276.577,82.944 279.793,80.739 280.066,79.455 L280.066,79.455 Z" id="Shape"></path>
                    <path d="M403.143,106.166 C419.296,99.532 461.273,114.389 445.825,136.789 C448.611,135.523 451.397,134.258 454.182,132.992 C451.389,132.572 449.639,132.281 446.801,132.858 C444.254,133.377 441.514,136.629 441.826,139.296 C442.288,143.23 443.777,145.666 447.935,146.244 C451.988,146.807 455.441,144.181 457.304,140.783 C465.367,126.081 460.705,110.646 446.097,102.617 C432.761,95.286 415.488,94.988 402.539,103.261 C401.184,104.128 400.977,107.055 403.143,106.166 L403.143,106.166 Z" id="Shape"></path>
                    <path d="M39.442,117.683 C25.485,114.434 9.413,122.551 2.262,134.544 C-1.758,141.285 0.097,149.209 3.966,155.461 C7.944,161.889 17.211,164.51 22.868,158.521 C24.921,156.348 26.952,153.438 25.741,150.278 C24.36,146.675 19.654,146.753 16.852,148.49 C15.727,149.089 16.014,149.11 17.713,148.551 C18.249,148.46 15.926,147.337 16.792,147.835 C15.374,147.02 14.324,145.463 13.395,144.163 C10.926,140.713 11.388,137.052 13.79,133.849 C18.759,127.222 29.569,124.216 37.423,123.585 C40.039,123.376 43.217,118.562 39.442,117.683 L39.442,117.683 Z" id="Shape"></path>
                    <path d="M21.254,163.373 C36.106,161.321 50.861,159.008 65.819,157.798 C81.146,156.558 96.548,156.138 111.918,155.87 C142.854,155.331 173.795,155.322 204.732,154.78 C269.412,153.647 333.927,150.573 398.537,147.616 C412.291,146.987 426.017,146.419 439.747,147.642 C441.358,142.932 442.971,138.221 444.582,133.51 C442.827,133.654 441.154,133.948 439.422,134.256 C436.276,134.815 433.533,136.53 432.131,139.512 C430.745,142.457 431.531,146.194 435.095,146.905 C436.665,147.218 438.151,147.506 439.747,147.642 C443.924,147.999 447.879,145.685 449.682,141.852 C451.69,137.583 449.408,133.384 444.582,133.509 C380.518,135.168 316.561,139.582 252.528,142.208 C220.592,143.518 188.608,144.537 156.648,144.971 C125.811,145.39 94.978,145.198 64.261,148.357 C50.011,149.823 35.589,151.85 21.865,156.061 C18.551,157.079 16.156,164.078 21.254,163.373 L21.254,163.373 Z" id="Shape"></path>
                    <path d="M53.23,178.628 C44.53,189.442 32.394,197.107 23.493,207.789 C18.15,214.202 8.475,234.61 21.26,239.059 C34.194,243.559 45.51,226.115 49.873,216.44 C52.739,210.085 54.726,203.338 56.999,196.759 C58.774,191.624 63.12,184.809 62.347,179.243 C61.942,176.329 59.002,175.971 56.754,177.201 C48.032,181.976 45.784,195.583 42.941,204.214 C41.261,209.314 39.404,214.36 36.982,219.159 C35.396,222.301 31.716,228.102 27.926,228.705 C24.99,229.171 26.836,219.884 27.092,218.962 C28.548,213.716 32.34,209.105 35.883,205.131 C39.81,200.727 44.22,196.767 48.338,192.546 C52.194,188.592 54.843,184.9 57.244,180.024 C58.711,177.042 54.718,176.779 53.23,178.628 L53.23,178.628 Z" id="Shape"></path>
                    <path d="M209.755,190.913 C204.515,198.325 196.614,204.512 190.131,210.869 C182.866,217.992 175.578,225.116 169.177,233.044 C163.667,239.868 158.778,247.997 157.656,256.84 C156.808,263.525 157.227,273.717 163.8,277.573 C169.761,281.071 177.372,275.898 181.852,272.288 C187.747,267.535 192.69,261.233 196.857,254.954 C203.153,245.467 207.586,234.62 212.828,224.529 C219.262,212.145 227.988,199.345 229.6,185.331 C230.098,180.998 225.323,181.943 223.347,184.152 C215.098,193.372 210.338,204.565 204.737,215.532 C199.388,226.007 194.47,236.69 189.201,247.2 C186.626,252.336 182.912,257.014 179.126,261.299 C177.627,262.994 175.785,264.803 173.978,266.06 C172.062,267.392 171.609,267.519 170.965,267.162 C169.463,266.325 169.107,262.321 168.906,260.698 C168.427,256.816 168.833,253.256 169.929,249.522 C172.106,242.111 177.594,235.462 182.44,229.644 C192.915,217.068 204.88,206.479 212.613,191.909 C213.696,189.87 210.767,189.482 209.755,190.913 L209.755,190.913 Z" id="Shape"></path>
                    <path d="M53.741,342.115 C51.366,344.447 48.396,345.987 45.818,348.07 C42.505,350.748 39.172,353.387 35.916,356.134 C29.739,361.343 23.695,366.871 18.813,373.341 C13.231,380.738 4.262,403.704 18.775,407.337 C31.665,410.564 42.818,396.191 47.849,386.49 C52.585,377.357 56.495,367.812 60.746,358.451 C62.989,353.511 65.337,348.619 67.871,343.821 C70.175,339.458 73.286,335.068 73.213,329.964 C73.161,326.314 68.88,326.201 66.487,327.509 C59.118,331.536 55.377,340.696 51.838,347.899 C48.129,355.449 44.99,363.275 41.659,370.996 C38.917,377.35 36.42,384.552 32.204,390.087 C30.37,392.495 27.145,394.8 25.596,395.022 C25.168,395.083 24.996,395.372 24.637,394.755 C23.592,392.961 23.717,390.555 23.914,388.577 C24.493,382.762 27.088,378.263 30.548,373.661 C34.569,368.314 39.436,363.637 44.216,358.982 C48.892,354.429 52.658,349.514 56.866,344.594 C58.846,342.281 55.715,340.176 53.741,342.115 L53.741,342.115 Z" id="Shape"></path>
                    <path d="M398.589,193.39 C382.268,203.079 367.098,214.678 353.037,227.449 C339.895,239.385 323.636,255.481 323.792,274.627 C323.859,282.778 327.045,291.034 336.32,290.838 C344.286,290.669 351.968,283.799 357.424,278.706 C375.08,262.22 386.086,239.7 397.874,218.977 C400.287,214.736 402.734,210.511 405.278,206.347 C407.983,201.919 411.206,197.361 412.246,192.198 C413.359,186.672 407.164,187.117 404.162,189.317 C398.695,193.321 395.24,199.79 391.807,205.486 C387.996,211.804 384.296,218.192 380.709,224.64 C374.17,236.395 367.875,248.598 359.898,259.466 C355.609,265.31 350.578,270.676 344.939,275.233 C342.952,276.838 340.375,278.373 338.956,278.538 C339.033,278.529 338.708,278.685 338.123,278.077 C337.228,277.148 336.896,275.563 336.678,274.343 C333.742,257.979 350.35,242.589 360.85,232.396 C373.72,219.903 389.168,209.473 400.215,195.244 C401.204,193.969 399.985,192.562 398.589,193.39 L398.589,193.39 Z" id="Shape"></path>
                    <path d="M263.94,338.342 C251,350.67 235.741,360.4 222.918,372.893 C216.4,379.243 210.631,386.489 207.067,394.92 C203.995,402.189 202.237,412.416 207.881,418.941 C212.395,424.159 220.524,423.496 226.343,421.379 C234.997,418.231 241.376,411.612 245.986,403.861 C252.112,393.559 254.148,381.202 259.217,370.381 C264.191,359.764 273.463,348.575 271.288,336.262 C270.597,332.343 265.681,333.188 263.883,335.903 C252.715,352.772 244.357,371.494 238.195,390.742 C235.966,397.705 233.135,404.894 226.586,408.748 C223.835,410.366 219.533,411.436 217.77,408.063 C214.715,402.22 218.577,394.291 221.447,389.179 C225.138,382.606 230.833,377.057 236.268,371.939 C246.902,361.925 260.064,353.248 266.89,339.96 C267.964,337.869 265.293,337.053 263.94,338.342 L263.94,338.342 Z" id="Shape"></path>
                </g>
            </g>
        </g>
    </g>
</svg>
